X: 14
T: HORNPIPE: Home Ruler
C: C: Frank McCollum; S: Various
C: Set Leaders: Mars, Tania, Anton
Z: Mars Agliullin ed.; Jdharv at The Session
N: https://thesession.org/members/26966/sets/94256
R: Hornpipe
M: 4/4
L: 1/8
Q: 1/2=82
K: Dmaj
|:A,B,|D2 FA D2 FA|df ed Bd dB|AA AB AF DE|(3FED ED B,D A,B,|
D2 FA D2 FA|df ed B2 dB|A2 AB AF EG|F2 D2 D2:||
|:dB|Ad dc de fg|af bf af ed|ef ed B2 de|fd ed Bd A2|
Ad dc de fg|af bf af ed|ef ed Bd dB|AF EF D2:||

